public/img/videoCaptionDecor.svg

<svg width="166" height="166" viewBox="0 0 166 166" fill="none" xmlns="http://www.w3.org/2000/svg">
<path d="M84.6545 123L119 71.3431V70.427H85.7869V43H84.6545L47 94.6569V95.5729H83.5928V123H84.6545Z" fill="#EAC032"/>
<path fill-rule="evenodd" clip-rule="evenodd" d="M83 163C127.183 163 163 127.183 163 83C163 38.8172 127.183 3 83 3C38.8172 3 3 38.8172 3 83C3 127.183 38.8172 163 83 163ZM83 166C128.84 166 166 128.84 166 83C166 37.1604 128.84 0 83 0C37.1604 0 0 37.1604 0 83C0 128.84 37.1604 166 83 166Z" fill="#EAC032"/>
</svg>

<svg width="166" height="166" fill="none" xmlns="http://www.w3.org/2000/svg"><path d="M84.654 123L119 71.343v-.916H85.787V43h-1.133L47 94.657v.916h36.593V123h1.061z" fill="#EAC032"/><path fill-rule="evenodd" clip-rule="evenodd" d="M83 163c44.183 0 80-35.817 80-80S127.183 3 83 3 3 38.817 3 83s35.817 80 80 80zm0 3c45.84 0 83-37.16 83-83S128.84 0 83 0 0 37.16 0 83s37.16 83 83 83z" fill="#EAC032"/></svg>
